X:1
T:This Great War
M:4/4
L:1/4
K:G
 B| B d BA/2-A/2| B/2B/2 B z B| B/2B/2 d B A| B z z| d| e B B A| G E E G|\
 A A A B| A D E| D| G4-| G D E/2E/2 D| G4-| G3||
